img/l/lu.ma.svg

<svg width="165" height="60" viewBox="0 0 165 60" fill="none" xmlns="http://www.w3.org/2000/svg">
<g clip-path="url(#clip0_478_118)">
<path d="M164.516 14.5137C156.529 14.5137 150.054 8.01598 150.054 0C150.054 8.01598 143.579 14.5137 135.591 14.5137C143.579 14.5137 150.054 21.0114 150.054 29.0274C150.052 21.0114 156.529 14.5137 164.516 14.5137Z" fill="black"/>
<path d="M8.66784 59.3699H0V6.21918H8.66784V59.3699Z" fill="black"/>
<path d="M28.3354 60C18.7234 60 13.2111 54.758 13.2111 45.6164V20.2534H21.8789V44.9749C21.8789 50.3653 23.8582 52.3699 29.1863 52.3699C36.091 52.3699 38.9075 49.0502 38.9075 40.9155V20.2534H47.5753V59.3699H39.2624V52.5411C38.1294 57.79 33.0948 60 28.3354 60Z" fill="black"/>
<path d="M107.327 59.3699H98.7292V34.0754C98.7292 28.9384 97.1344 27.0274 92.8415 27.0274C87.3177 27.0274 84.3989 30.3265 84.3989 36.5685V59.3676H75.8015V34.0754C75.8015 29.0685 74.1567 27.0274 70.1276 27.0274C62.9408 27.0274 61.4712 34.5525 61.4712 36.5685V59.3676H52.8033V20.2534H61.1163V27.0936C62.5927 22.2945 67.2634 19.3973 71.9727 19.3973C76.6797 19.3973 80.6382 21.2009 82.3559 27.0936C84.6605 20.984 88.8056 19.3973 93.7651 19.3973C102.383 19.3973 107.327 23.7078 107.327 31.226V59.3699Z" fill="black"/>
<path d="M124.765 60C112.793 60 110.762 52.363 110.762 48.4658C110.762 43.8767 112.771 39.742 117.116 38.0662C119.029 37.3562 120.874 36.8265 122.767 36.4452C124.435 36.1096 127.008 35.7534 128.889 35.4932L129.51 35.4064C132.782 34.9498 136.26 33.3037 136.26 31.1553C136.26 27.5023 131.594 26.9566 128.812 26.9566C125.656 26.9566 123.434 27.7717 122.549 29.2512C121.755 30.726 121.7 31.0708 121.498 32.3562L121.357 33.3676H112.689L112.843 32.0868C113.151 29.5434 113.619 27.742 114.318 26.4178C116.716 21.7626 121.545 19.3973 128.669 19.3973C134.609 19.3973 138.822 21.2763 140.785 23.0365C141.993 24.0868 142.856 25.2831 143.49 26.7945C144.819 29.6164 144.928 31.5046 144.928 33.5069V53.2397C144.928 55.0822 145.106 56.6575 145.454 57.9201L145.854 59.3699H137.002L136.843 58.4133C136.729 57.7375 136.69 53.9041 136.643 52.4247C134.595 57.8151 130.211 60 124.765 60ZM136.258 38.6027C134.445 39.9977 131.601 40.7945 127.472 41.6233C120.358 42.9429 119.159 44.605 119.159 47.8379C119.159 50.6918 121.577 52.4635 125.472 52.4635C133.032 52.4635 136.258 48.9292 136.258 40.6438V38.6027Z" fill="black"/>
</g>
<defs>
<clipPath id="clip0_478_118">
<rect width="164.516" height="60" fill="white"/>
</clipPath>
</defs>
</svg>

<svg xmlns="http://www.w3.org/2000/svg" width="165" height="60" fill="none"><g fill="#000" clip-path="url(#a)"><path d="M164.516 14.514c-7.987 0-14.462-6.498-14.462-14.514 0 8.016-6.475 14.514-14.463 14.514 7.988 0 14.463 6.497 14.463 14.513-.002-8.016 6.475-14.513 14.462-14.513ZM8.668 59.37H0V6.22h8.668v53.15ZM28.335 60c-9.612 0-15.124-5.242-15.124-14.384V20.253h8.668v24.722c0 5.39 1.98 7.395 7.307 7.395 6.905 0 9.721-3.32 9.721-11.454V20.253h8.668V59.37h-8.313V52.54C38.13 57.79 33.095 60 28.335 60ZM107.327 59.37h-8.598V34.075c0-5.137-1.595-7.048-5.888-7.048-5.523 0-8.442 3.3-8.442 9.541v22.8h-8.597V34.075c0-5.007-1.645-7.048-5.674-7.048-7.187 0-8.657 7.526-8.657 9.541v22.8h-8.668V20.253h8.313v6.84c1.477-4.799 6.147-7.696 10.857-7.696 4.707 0 8.665 1.804 10.383 7.697 2.305-6.11 6.45-7.697 11.41-7.697 8.617 0 13.561 4.31 13.561 11.829V59.37ZM124.765 60c-11.972 0-14.003-7.637-14.003-11.534 0-4.59 2.009-8.724 6.354-10.4a37.16 37.16 0 0 1 5.651-1.62c1.668-.336 4.241-.693 6.122-.953l.621-.087c3.272-.456 6.75-2.102 6.75-4.25 0-3.654-4.666-4.2-7.448-4.2-3.156 0-5.378.816-6.263 2.295-.794 1.475-.849 1.82-1.051 3.105l-.141 1.012h-8.668l.154-1.281c.308-2.544.776-4.345 1.475-5.67 2.398-4.654 7.227-7.02 14.351-7.02 5.94 0 10.153 1.88 12.116 3.64 1.208 1.05 2.071 2.246 2.705 3.758 1.329 2.821 1.438 4.71 1.438 6.712V53.24c0 1.842.178 3.417.526 4.68l.4 1.45h-8.852l-.159-.957c-.114-.675-.153-4.509-.2-5.988-2.048 5.39-6.432 7.575-11.878 7.575Zm11.493-21.397c-1.813 1.395-4.657 2.191-8.786 3.02-7.114 1.32-8.313 2.982-8.313 6.215 0 2.854 2.418 4.626 6.313 4.626 7.56 0 10.786-3.535 10.786-11.82v-2.041Z"/></g><defs><clipPath id="a"><path fill="#fff" d="M0 0h164.516v60H0z"/></clipPath></defs></svg>
